front/svg/symbols/main/share-facebook.svg

<?xml version="1.0" encoding="UTF-8" standalone="no"?>
<svg version="1.1" xmlns="http://www.w3.org/2000/svg" xmlns:xlink="http://www.w3.org/1999/xlink" viewBox="0 0 32 32" preserveAspectRatio="xMinYMin meet">
	<g stroke="none" stroke-width="1" fill="none" fill-rule="evenodd">
		<path d="M21.0634921,7.91269841 L19.0396825,7.91269841 C17.4206349,7.91269841 17.1507937,8.72222222 17.1507937,9.8015873 L17.1507937,12.3650794 L21.0634921,12.3650794 L20.6587302,16.4126984 L17.4206349,16.4126984 L17.4206349,26.8015873 L13.3730159,26.8015873 L13.3730159,16.4126984 L10,16.4126984 L10,12.3650794 L13.3730159,12.3650794 L13.3730159,9.3968254 C13.3730159,6.02380952 15.3968254,4 18.3650794,4 C19.7142857,4 20.9285714,4.13492063 21.3333333,4.13492063 L21.3333333,7.91269841 L21.0634921,7.91269841 Z" fill="#4760A5"></path>
	</g>
</svg>

<svg xmlns="http://www.w3.org/2000/svg" viewBox="0 0 32 32" preserveAspectRatio="xMinYMin meet"><path d="M21.063 7.913H19.04c-1.62 0-1.89.81-1.89 1.89v2.562h3.913l-.404 4.048h-3.24v10.39h-4.047v-10.39H10v-4.048h3.373V9.397C13.373 6.024 15.397 4 18.365 4c1.35 0 2.564.135 2.968.135v3.778h-.27z" fill="#4760A5" fill-rule="evenodd"/></svg>
